svg/UnitedNationsOCHA-Humanitarian/food_NFI_mattress_icon.svg

<svg xmlns="http://www.w3.org/2000/svg" viewBox="0 0 32 32" enable-background="new 0 0 32 32"><path fill="#407cca" d="m21.07 4h-10.128c-1.788 0-3.244.911-3.244 3.237v17.519c0 2.664 1.456 3.244 3.244 3.244h10.128c1.784 0 3.237-.472 3.237-3.244v-17.519c.0001-2.396-1.452-3.237-3.237-3.237m-.39 5.276c0 .53-.569.955-1.263.955h-6.825c-.693 0-1.262-.425-1.262-.955v-2.982c0-.53.569-.955 1.262-.955h6.825c.693 0 1.263.425 1.263.955v2.982"/></svg>

<?xml version="1.0" encoding="utf-8"?>
<!-- Generator: Adobe Illustrator 16.0.3, SVG Export Plug-In . SVG Version: 6.00 Build 0)  -->
<!DOCTYPE svg PUBLIC "-//W3C//DTD SVG 1.1//EN" "http://www.w3.org/Graphics/SVG/1.1/DTD/svg11.dtd">
<svg version="1.1" id="Layer_1" xmlns="http://www.w3.org/2000/svg" xmlns:xlink="http://www.w3.org/1999/xlink" x="0px" y="0px"
	 width="32px" height="32px" viewBox="0 0 32 32" enable-background="new 0 0 32 32" xml:space="preserve">
<path fill="#407CCA" d="M21.067,4H10.939C9.151,4,7.695,4.911,7.695,7.237v17.519C7.695,27.42,9.151,28,10.939,28h10.128
	c1.784,0,3.237-0.472,3.237-3.244V7.237C24.305,4.841,22.852,4,21.067,4z M20.677,9.276c0,0.53-0.569,0.955-1.263,0.955h-6.825
	c-0.693,0-1.262-0.425-1.262-0.955V6.294c0-0.53,0.569-0.955,1.262-0.955h6.825c0.693,0,1.263,0.425,1.263,0.955V9.276z"/>
</svg>
